X: 23847
T: Liverpool, The
R: hornpipe
M: 4/4
K: Dmajor
|:A>G|F>DF>A d>fa>f|g>fe>d d>cB>A|G>BG>B F>AF>A|E>DE>F G>BA>G|
F>DF>A d>fa>f|g>fe>d d>cB>A|d>fa>f b>ge>c|d2 d2 d2:|
|:(3ABc|d>fd>f c>ec>e|B>AB>c d>cB>A|G>BG>B F>AF>A|E>DE>F G>BA>G|
F>DF>A d>fa>f|g>fe>d d>cB>A|d>fa>f b>ge>c|d2 d2 d2:|

